Numix-GalliumOS/64/mimetypes/application-x-lzma.svg

<svg xmlns="http://www.w3.org/2000/svg" xmlns:xlink="http://www.w3.org/1999/xlink" width="64px" height="64px" viewBox="0 0 64 64" version="1.1">
<g id="surface1">
<path style=" stroke:none;fill-rule:nonzero;fill:rgb(75.686275%,58.431373%,32.54902%);fill-opacity:1;" d="M 10.671875 0 C 9.296875 0 8 1.355469 8 2.789062 L 8 61.210938 C 8 62.566406 9.375 64 10.671875 64 L 53.328125 64 C 54.625 64 56 62.566406 56 61.210938 L 56 18 L 38 0 Z M 10.671875 0 "/>
<path style=" stroke:none;fill-rule:nonzero;fill:rgb(0%,0%,0%);fill-opacity:0.196078;" d="M 8 48 L 8 61.335938 C 8 62.632812 9.375 64 10.664062 64 L 53.335938 64 C 54.625 64 56 62.632812 56 61.335938 L 56 48 Z M 8 48 "/>
<path style=" stroke:none;fill-rule:nonzero;fill:rgb(0%,0%,0%);fill-opacity:0.196078;" d="M 42 18 L 56 32 L 56 18 Z M 42 18 "/>
<path style=" stroke:none;fill-rule:nonzero;fill:rgb(100%,100%,100%);fill-opacity:1;" d="M 22.484375 62 L 16 62 L 16 51.335938 L 18.070312 51.335938 L 18.070312 60.242188 L 22.484375 60.242188 L 22.484375 62 "/>
<path style=" stroke:none;fill-rule:nonzero;fill:rgb(100%,100%,100%);fill-opacity:0.392157;" d="M 38 0 L 55.984375 18 L 40.757812 18 C 39.410156 18 38 16.574219 38 15.226562 Z M 38 0 "/>
<path style=" stroke:none;fill-rule:nonzero;fill:rgb(100%,100%,100%);fill-opacity:1;" d="M 30.570312 52.8125 C 30.085938 53.570312 29.648438 54.289062 29.25 54.953125 C 28.851562 55.617188 28.476562 56.257812 28.132812 56.867188 C 27.789062 57.460938 27.460938 58.039062 27.148438 58.601562 C 26.851562 59.15625 26.5625 59.703125 26.28125 60.242188 L 30.71875 60.242188 L 30.71875 62 L 23.914062 62 L 23.914062 60.773438 C 24.164062 60.28125 24.421875 59.765625 24.703125 59.226562 C 24.976562 58.671875 25.289062 58.085938 25.632812 57.46875 C 25.976562 56.84375 26.351562 56.171875 26.75 55.453125 C 27.164062 54.726562 27.609375 53.9375 28.101562 53.09375 L 24.132812 53.09375 L 24.132812 51.335938 L 30.570312 51.335938 L 30.570312 52.8125 "/>
<path style=" stroke:none;fill-rule:evenodd;fill:rgb(97.647059%,97.647059%,97.647059%);fill-opacity:1;" d="M 18 0 L 24 0 L 24 6 L 18 6 Z M 18 0 "/>
<path style=" stroke:none;fill-rule:nonzero;fill:rgb(100%,100%,100%);fill-opacity:1;" d="M 34.164062 51.335938 C 34.242188 51.578125 34.335938 51.882812 34.453125 52.265625 C 34.570312 52.640625 34.703125 53.046875 34.835938 53.484375 C 34.96875 53.921875 35.101562 54.367188 35.234375 54.8125 C 35.367188 55.265625 35.492188 55.671875 35.617188 56.054688 C 35.75 55.632812 35.890625 55.195312 36.03125 54.742188 C 36.179688 54.289062 36.320312 53.851562 36.453125 53.4375 C 36.585938 53.007812 36.703125 52.617188 36.820312 52.25 C 36.929688 51.882812 37.03125 51.578125 37.117188 51.335938 L 38.820312 51.335938 C 38.898438 52.265625 38.96875 53.171875 39.03125 54.054688 C 39.109375 54.9375 39.171875 55.820312 39.21875 56.695312 C 39.273438 57.554688 39.320312 58.429688 39.351562 59.3125 C 39.382812 60.1875 39.414062 61.078125 39.429688 62 L 37.546875 62 L 37.648438 53.710938 L 36.382812 58.226562 L 34.882812 58.226562 L 33.664062 53.710938 L 33.75 62 L 31.867188 62 C 31.898438 61.125 31.929688 60.21875 31.96875 59.273438 C 32.007812 58.335938 32.054688 57.398438 32.101562 56.46875 C 32.148438 55.539062 32.195312 54.632812 32.25 53.765625 C 32.320312 52.890625 32.390625 52.078125 32.46875 51.335938 L 34.164062 51.335938 "/>
<path style=" stroke:none;fill-rule:evenodd;fill:rgb(97.647059%,97.647059%,97.647059%);fill-opacity:1;" d="M 24 6 L 30 6 L 30 12 L 24 12 Z M 24 6 "/>
<path style=" stroke:none;fill-rule:nonzero;fill:rgb(100%,100%,100%);fill-opacity:1;" d="M 45.796875 62 L 45.320312 59.539062 L 42.570312 59.539062 L 42.101562 62 L 39.96875 62 C 40.453125 59.898438 40.953125 57.984375 41.453125 56.257812 C 41.953125 54.523438 42.429688 52.882812 42.898438 51.335938 L 45.132812 51.335938 C 45.625 52.898438 46.109375 54.554688 46.585938 56.3125 C 47.070312 58.0625 47.546875 59.953125 48 62 L 45.796875 62 M 43.96875 53.398438 C 43.859375 53.804688 43.75 54.1875 43.648438 54.554688 C 43.5625 54.914062 43.46875 55.265625 43.382812 55.625 C 43.304688 55.96875 43.226562 56.320312 43.148438 56.671875 C 43.085938 57.03125 43.015625 57.398438 42.953125 57.78125 L 44.96875 57.78125 C 44.898438 57.398438 44.835938 57.03125 44.765625 56.671875 C 44.703125 56.320312 44.625 55.96875 44.53125 55.625 C 44.453125 55.265625 44.367188 54.914062 44.265625 54.554688 C 44.179688 54.1875 44.078125 53.804688 43.96875 53.398438 "/>
<path style=" stroke:none;fill-rule:evenodd;fill:rgb(97.647059%,97.647059%,97.647059%);fill-opacity:1;" d="M 18 12 L 24 12 L 24 18 L 18 18 Z M 18 12 "/>
<path style=" stroke:none;fill-rule:evenodd;fill:rgb(97.647059%,97.647059%,97.647059%);fill-opacity:1;" d="M 24 18 L 30 18 L 30 24 L 24 24 Z M 24 18 "/>
<path style=" stroke:none;fill-rule:evenodd;fill:rgb(97.647059%,97.647059%,97.647059%);fill-opacity:1;" d="M 18 24 L 24 24 L 24 30 L 18 30 Z M 18 24 "/>
<path style=" stroke:none;fill-rule:evenodd;fill:rgb(97.647059%,97.647059%,97.647059%);fill-opacity:1;" d="M 18 32 L 30 32 L 30 44 L 18 44 Z M 18 32 "/>
</g>
</svg>

<svg xmlns="http://www.w3.org/2000/svg" viewBox="0 0 64 64">
 <g>
  <path d="m 10.672 0 c -1.375 0 -2.672 1.355 -2.672 2.789 l 0 58.42 c 0 1.355 1.375 2.789 2.672 2.789 l 42.656 0 c 1.297 0 2.672 -1.434 2.672 -2.789 l 0 -43.21 l -18 -18 m -27.328 0" style="fill:#c19553;fill-opacity:1;stroke:none;fill-rule:nonzero"/>
  <path d="m 8 48 l 0 13.336 c 0 1.297 1.375 2.664 2.664 2.664 l 42.672 0 c 1.289 0 2.664 -1.367 2.664 -2.664 l 0 -13.336 m -48 0" style="fill:#000;fill-opacity:0.196;stroke:none;fill-rule:nonzero"/>
  <path d="m 42 18 l 14 14 l 0 -14 m -14 0" style="fill:#000;fill-opacity:0.196;stroke:none;fill-rule:nonzero"/>
  <path d="m 22.484 62 l -6.484 0 l 0 -10.664 l 2.07 0 l 0 8.906 l 4.414 0 l 0 1.758" style="fill:#fff;fill-opacity:1;stroke:none;fill-rule:nonzero"/>
  <path d="m 38 0 l 17.984 18 l -15.227 0 c -1.348 0 -2.758 -1.426 -2.758 -2.773 m 0 -15.227" style="fill:#fff;fill-opacity:0.392;stroke:none;fill-rule:nonzero"/>
  <path d="m 30.57 52.813 c -0.484 0.758 -0.922 1.477 -1.32 2.141 c -0.398 0.664 -0.773 1.305 -1.117 1.914 c -0.344 0.594 -0.672 1.172 -0.984 1.734 c -0.297 0.555 -0.586 1.102 -0.867 1.641 l 4.438 0 l 0 1.758 l -6.805 0 l 0 -1.227 c 0.25 -0.492 0.508 -1.01 0.789 -1.547 c 0.273 -0.555 0.586 -1.141 0.93 -1.758 c 0.344 -0.625 0.719 -1.297 1.117 -2.02 c 0.414 -0.727 0.859 -1.516 1.352 -2.359 l -3.969 0 l 0 -1.758 l 6.438 0 l 0 1.477" style="fill:#fff;fill-opacity:1;stroke:none;fill-rule:nonzero"/>
  <path d="m 18 0 l 6 0 l 0 6 l -6 0 m 0 -6" style="fill:#f9f9f9;fill-opacity:1;stroke:none;fill-rule:evenodd"/>
  <path d="m 34.16 51.34 c 0.078 0.242 0.172 0.547 0.289 0.93 c 0.117 0.375 0.25 0.781 0.383 1.219 c 0.133 0.438 0.266 0.883 0.398 1.328 c 0.133 0.453 0.258 0.859 0.383 1.242 c 0.133 -0.422 0.273 -0.859 0.414 -1.313 c 0.148 -0.453 0.289 -0.891 0.422 -1.305 c 0.133 -0.43 0.25 -0.82 0.367 -1.188 c 0.109 -0.367 0.211 -0.672 0.297 -0.914 l 1.703 0 c 0.078 0.93 0.148 1.836 0.211 2.719 c 0.078 0.883 0.141 1.766 0.188 2.641 c 0.055 0.859 0.102 1.734 0.133 2.617 c 0.031 0.875 0.063 1.766 0.078 2.688 l -1.883 0 l 0.102 -8.289 l -1.266 4.516 l -1.5 0 l -1.219 -4.516 l 0.086 8.289 l -1.883 0 c 0.031 -0.875 0.063 -1.781 0.102 -2.727 c 0.039 -0.938 0.086 -1.875 0.133 -2.805 c 0.047 -0.93 0.094 -1.836 0.148 -2.703 c 0.07 -0.875 0.141 -1.688 0.219 -2.43 l 1.695 0" style="fill:#fff;fill-opacity:1;stroke:none;fill-rule:nonzero"/>
  <path d="m 24 6 l 6 0 l 0 6 l -6 0 m 0 -6" style="fill:#f9f9f9;fill-opacity:1;stroke:none;fill-rule:evenodd"/>
  <path d="m 45.797 62 l -0.477 -2.461 l -2.75 0 l -0.469 2.461 l -2.133 0 c 0.484 -2.102 0.984 -4.02 1.484 -5.742 c 0.5 -1.734 0.977 -3.375 1.445 -4.922 l 2.234 0 c 0.492 1.563 0.977 3.219 1.453 4.977 c 0.484 1.75 0.961 3.641 1.414 5.688 l -2.203 0 m -1.828 -8.602 c -0.109 0.406 -0.219 0.789 -0.32 1.156 c -0.086 0.359 -0.18 0.711 -0.266 1.07 c -0.078 0.344 -0.156 0.695 -0.234 1.047 c -0.063 0.359 -0.133 0.727 -0.195 1.109 l 2.02 0 c -0.07 -0.383 -0.133 -0.75 -0.203 -1.109 c -0.063 -0.352 -0.141 -0.703 -0.234 -1.047 c -0.078 -0.359 -0.164 -0.711 -0.266 -1.07 c -0.086 -0.367 -0.188 -0.75 -0.297 -1.156" style="fill:#fff;fill-opacity:1;stroke:none;fill-rule:nonzero"/>
  <path d="m 18 12 l 6 0 l 0 6 l -6 0 m 0 -6" style="fill:#f9f9f9;fill-opacity:1;stroke:none;fill-rule:evenodd"/>
  <path d="m 24 18 l 6 0 l 0 6 l -6 0 m 0 -6" style="fill:#f9f9f9;fill-opacity:1;stroke:none;fill-rule:evenodd"/>
  <path d="m 18 24 l 6 0 l 0 6 l -6 0 m 0 -6" style="fill:#f9f9f9;fill-opacity:1;stroke:none;fill-rule:evenodd"/>
  <path d="m 18 32 l 12 0 l 0 12 l -12 0 m 0 -12" style="fill:#f9f9f9;fill-opacity:1;stroke:none;fill-rule:evenodd"/>
 </g>
</svg>
